Numix-Light/16x16/status/xfpm-keyboard-030.svg

<?xml version="1.0" encoding="UTF-8" standalone="no"?>
<svg
   xmlns:dc="http://purl.org/dc/elements/1.1/"
   xmlns:cc="http://creativecommons.org/ns#"
   xmlns:rdf="http://www.w3.org/1999/02/22-rdf-syntax-ns#"
   xmlns:svg="http://www.w3.org/2000/svg"
   xmlns="http://www.w3.org/2000/svg"
   xmlns:sodipodi="http://sodipodi.sourceforge.net/DTD/sodipodi-0.dtd"
   xmlns:inkscape="http://www.inkscape.org/namespaces/inkscape"
   width="16"
   height="16"
   viewBox="0 0 16 16"
   id="svg2"
   version="1.1"
   inkscape:version="0.48.5 r10040"
   sodipodi:docname="xfpm-keyboard-030.svg">
  <metadata
     id="metadata26">
    <rdf:RDF>
      <cc:Work
         rdf:about="">
        <dc:format>image/svg+xml</dc:format>
        <dc:type
           rdf:resource="http://purl.org/dc/dcmitype/StillImage" />
      </cc:Work>
    </rdf:RDF>
  </metadata>
  <defs
     id="defs24" />
  <sodipodi:namedview
     pagecolor="#ffffff"
     bordercolor="#666666"
     borderopacity="1"
     objecttolerance="10"
     gridtolerance="10"
     guidetolerance="10"
     inkscape:pageopacity="0"
     inkscape:pageshadow="2"
     inkscape:window-width="1280"
     inkscape:window-height="998"
     id="namedview22"
     showgrid="false"
     inkscape:zoom="29.5"
     inkscape:cx="9.4620026"
     inkscape:cy="9.4900848"
     inkscape:window-x="0"
     inkscape:window-y="0"
     inkscape:window-maximized="1"
     inkscape:current-layer="svg2" />
  <path
     style="font-size:medium;font-style:normal;font-variant:normal;font-weight:normal;font-stretch:normal;text-indent:0;text-align:start;text-decoration:none;line-height:normal;letter-spacing:normal;word-spacing:normal;text-transform:none;direction:ltr;block-progression:tb;writing-mode:lr-tb;text-anchor:start;baseline-shift:baseline;color:#000000;fill:#353535;fill-opacity:1;stroke:none;stroke-width:0.72727001000000002;marker:none;visibility:visible;display:inline;overflow:visible;enable-background:accumulate;font-family:Sans;-inkscape-font-specification:Sans"
     d="m 11.4375,1.46875 c -0.592478,-0.068329 -1.208646,0.3072421 -1.25,0.96875 l 0,0.03125 c -0.0024,0.1474546 3.65e-4,0.2915147 0,0.4375 l -0.375,0 C 9.2148071,2.90625 8.71875,3.4023067 8.71875,4 l 0,8.71875 c 0,0.597694 0.4960565,1.09375 1.09375,1.09375 l 3.625,0 c 0.599721,0 1.125,-0.496057 1.125,-1.09375 L 14.5625,4 c 0,-0.5976929 -0.52528,-1.09375 -1.125,-1.09375 l -0.34375,0 c 0.0032,-0.098653 0.0037,-0.192352 0,-0.3125 -0.007,-0.2282812 -0.05785,-0.5076001 -0.25,-0.75 -0.210916,-0.2703294 -0.528751,-0.3509819 -0.78125,-0.375 -0.239874,-0.022817 -0.441783,0.00307 -0.59375,0 -0.008,-1.615e-4 -0.02359,3.096e-4 -0.03125,0 z m -0.0625,0.71875 0.03125,0 c 0.233479,0.00943 0.44586,-0.014067 0.59375,0 0.14789,0.014067 0.214823,0.039862 0.28125,0.125 0.06176,0.077912 0.08898,0.156017 0.09375,0.3125 0.0023,0.074123 0.0032,0.1877892 0,0.28125 l -1.46875,0 c 3.36e-4,-0.1338025 -0.002,-0.273714 0,-0.40625 0.0126,-0.2016048 0.257871,-0.3429155 0.46875,-0.3125 z m -1.5625,1.4375 3.625,0 c 0.212776,0 0.375,0.1680079 0.375,0.375 l 0,8.71875 c 0,0.206993 -0.162225,0.375 -0.375,0.375 l -3.625,0 c -0.2069915,0 -0.34375,-0.168008 -0.34375,-0.375 L 9.46875,4 c 0,-0.2069917 0.1367579,-0.375 0.34375,-0.375 z"
     id="path14"
     inkscape:connector-curvature="0" />
  <path
     style="fill:#353535;fill-rule:evenodd;fill-opacity:1"
     inkscape:connector-curvature="0"
     id="path18"
     d="m 2.183594,2.910156 c -0.40625,0 -0.730469,0.324219 -0.730469,0.726563 l 0,9.453125 c 0,0.402344 0.324219,0.726562 0.730469,0.726562 l 3.632812,0 c 0.40625,0 0.730469,-0.324218 0.730469,-0.726562 l 0,-9.453125 c 0,-0.402344 -0.324219,-0.726563 -0.730469,-0.726563 z m 0,2.179688 0.726562,0 0,0.726562 -0.726562,0 z m 1.453125,0 0.726562,0 0,0.726562 -0.726562,0 z m 1.453125,0.726562 0.726562,0 0,5.09375 -0.726562,0 z m -2.90625,0.730469 0.726562,0 0,0.726563 -0.726562,0 z m 1.453125,0 0.726562,0 0,0.726563 -0.726562,0 z M 2.183594,8 l 0.726562,0 0,0.726562 -0.726562,0 z m 1.453125,0 0.726562,0 0,0.726562 -0.726562,0 z m -1.453125,1.453125 0.726562,0 0,0.730469 -0.726562,0 z m 1.453125,0 0.726562,0 0,0.730469 -0.726562,0 z m -1.453125,1.457031 0.726562,0 0,0.726563 -0.726562,0 z m 1.453125,0 0.726562,0 0,0.726563 -0.726562,0 z" />
  <path
     style="fill:#353535;fill-rule:evenodd;fill-opacity:1"
     inkscape:connector-curvature="0"
     id="path20"
     d="m 10.546875,10.183594 2.179687,0 c 0.203126,0 0.363282,0.160156 0.363282,0.363281 l 0,1.453125 c 0,0.199219 -0.160156,0.363281 -0.363282,0.363281 l -2.179687,0 c -0.203125,0 -0.363281,-0.164062 -0.363281,-0.363281 l 0,-1.453125 c 0,-0.203125 0.160156,-0.363281 0.363281,-0.363281 z" />
</svg>

<svg width="16" xmlns="http://www.w3.org/2000/svg" height="16" viewBox="0 0 16 16" xmlns:xlink="http://www.w3.org/1999/xlink">
<path style="fill:#000;fill-rule:evenodd;fill-opacity:.302" d="M 2.183594 3.636719 C 1.777344 3.636719 1.453125 3.960938 1.453125 4.363281 L 1.453125 13.816406 C 1.453125 14.222656 1.777344 14.546875 2.183594 14.546875 L 5.816406 14.546875 C 6.222656 14.546875 6.546875 14.222656 6.546875 13.816406 L 6.546875 4.363281 C 6.546875 3.960938 6.222656 3.636719 5.816406 3.636719 Z M 2.183594 5.816406 L 2.910156 5.816406 L 2.910156 6.546875 L 2.183594 6.546875 Z M 3.636719 5.816406 L 4.363281 5.816406 L 4.363281 6.546875 L 3.636719 6.546875 Z M 5.089844 6.546875 L 5.816406 6.546875 L 5.816406 11.636719 L 5.089844 11.636719 Z M 2.183594 7.273438 L 2.910156 7.273438 L 2.910156 8 L 2.183594 8 Z M 3.636719 7.273438 L 4.363281 7.273438 L 4.363281 8 L 3.636719 8 Z M 2.183594 8.726562 L 2.910156 8.726562 L 2.910156 9.453125 L 2.183594 9.453125 Z M 3.636719 8.726562 L 4.363281 8.726562 L 4.363281 9.453125 L 3.636719 9.453125 Z M 2.183594 10.183594 L 2.910156 10.183594 L 2.910156 10.910156 L 2.183594 10.910156 Z M 3.636719 10.183594 L 4.363281 10.183594 L 4.363281 10.910156 L 3.636719 10.910156 Z M 2.183594 11.636719 L 2.910156 11.636719 L 2.910156 12.363281 L 2.183594 12.363281 Z M 3.636719 11.636719 L 4.363281 11.636719 L 4.363281 12.363281 L 3.636719 12.363281 Z M 10.546875 11.636719 C 10.34375 11.636719 10.183594 11.796875 10.183594 12 L 10.183594 12.726562 C 10.183594 12.929688 10.34375 13.089844 10.546875 13.089844 L 12.726562 13.089844 C 12.929688 13.089844 13.089844 12.929688 13.089844 12.726562 L 13.089844 12 C 13.089844 11.796875 12.929688 11.636719 12.726562 11.636719 Z "/>
<g style="stroke-linecap:round;fill:none">
<g style="stroke-opacity:.302">
<path style="stroke:#000" d="M 12.498535 12.498047 L 12.498535 0.499023 C 12.498535 -0.0541992 12.944336 -0.5 13.497559 -0.5 L 18.498047 -0.5 C 19.056641 -0.5 19.502441 -0.0541992 19.502441 0.499023 L 19.502441 12.498047 C 19.502441 13.056641 19.056641 13.502441 18.498047 13.502441 L 13.497559 13.502441 C 12.944336 13.502441 12.498535 13.056641 12.498535 12.498047 Z M 14.501953 -0.618164 C 14.501953 -0.945801 14.501953 -1.273438 14.507324 -1.601074 C 14.544922 -2.197266 15.157227 -2.578613 15.71582 -2.498047 C 16.247559 -2.476562 16.89209 -2.621582 17.273438 -2.138184 C 17.622559 -1.697754 17.461426 -1.117676 17.499023 -0.59668 " transform="matrix(.72727 0 0 .72727 0 4.36364)"/>
<path style="stroke:#fff;stroke-width:.5" d="M -11.499023 13.250488 L 0.5 13.250488 C 0.639648 13.250488 0.752441 13.363281 0.752441 13.497559 L 0.752441 18.498047 C 0.752441 18.637695 0.639648 18.750488 0.5 18.750488 L -11.499023 18.750488 C -11.638672 18.750488 -11.751465 18.637695 -11.751465 18.498047 L -11.751465 13.497559 C -11.751465 13.363281 -11.638672 13.250488 -11.499023 13.250488 Z " transform="matrix(0 -.72727 .72727 0 0 4.36364)"/>
</g>
<path style="stroke:#353535" d="M 12.498535 11.499023 L 12.498535 -0.5 C 12.498535 -1.053223 12.944336 -1.499023 13.497559 -1.499023 L 18.498047 -1.499023 C 19.056641 -1.499023 19.502441 -1.053223 19.502441 -0.5 L 19.502441 11.499023 C 19.502441 12.052246 19.056641 12.498047 18.498047 12.498047 L 13.497559 12.498047 C 12.944336 12.498047 12.498535 12.052246 12.498535 11.499023 Z M 14.501953 -1.617188 C 14.501953 -1.944824 14.501953 -2.272461 14.507324 -2.600098 C 14.544922 -3.20166 15.157227 -3.577637 15.71582 -3.49707 C 16.247559 -3.475586 16.89209 -3.625977 17.273438 -3.137207 C 17.622559 -2.696777 17.461426 -2.116699 17.499023 -1.601074 " transform="matrix(.72727 0 0 .72727 0 4.36364)"/>
</g>
<g style="fill-rule:evenodd;fill:#353535">
<path d="M 2.183594 2.910156 C 1.777344 2.910156 1.453125 3.234375 1.453125 3.636719 L 1.453125 13.089844 C 1.453125 13.492188 1.777344 13.816406 2.183594 13.816406 L 5.816406 13.816406 C 6.222656 13.816406 6.546875 13.492188 6.546875 13.089844 L 6.546875 3.636719 C 6.546875 3.234375 6.222656 2.910156 5.816406 2.910156 Z M 2.183594 5.089844 L 2.910156 5.089844 L 2.910156 5.816406 L 2.183594 5.816406 Z M 3.636719 5.089844 L 4.363281 5.089844 L 4.363281 5.816406 L 3.636719 5.816406 Z M 5.089844 5.816406 L 5.816406 5.816406 L 5.816406 10.910156 L 5.089844 10.910156 Z M 2.183594 6.546875 L 2.910156 6.546875 L 2.910156 7.273438 L 2.183594 7.273438 Z M 3.636719 6.546875 L 4.363281 6.546875 L 4.363281 7.273438 L 3.636719 7.273438 Z M 2.183594 8 L 2.910156 8 L 2.910156 8.726562 L 2.183594 8.726562 Z M 3.636719 8 L 4.363281 8 L 4.363281 8.726562 L 3.636719 8.726562 Z M 2.183594 9.453125 L 2.910156 9.453125 L 2.910156 10.183594 L 2.183594 10.183594 Z M 3.636719 9.453125 L 4.363281 9.453125 L 4.363281 10.183594 L 3.636719 10.183594 Z M 2.183594 10.910156 L 2.910156 10.910156 L 2.910156 11.636719 L 2.183594 11.636719 Z M 3.636719 10.910156 L 4.363281 10.910156 L 4.363281 11.636719 L 3.636719 11.636719 Z "/>
<path d="M 10.546875 10.183594 L 12.726562 10.183594 C 12.929688 10.183594 13.089844 10.34375 13.089844 10.546875 L 13.089844 12 C 13.089844 12.199219 12.929688 12.363281 12.726562 12.363281 L 10.546875 12.363281 C 10.34375 12.363281 10.183594 12.199219 10.183594 12 L 10.183594 10.546875 C 10.183594 10.34375 10.34375 10.183594 10.546875 10.183594 Z "/>
</g>
</svg>
